X: 2236
T: DUBLIN STREETS
Q: "Irish Jig."
R: Slip-Jig.
%R: slip-jig
B: James Kerr "Merry Melodies" v.2 p.26 #236
Z: 2016 John Chambers <jc:trillian.mit.edu>
M: 9/8
L: 1/8
K: Em
|:\
vG2vA BGE BGE | uF2uG AFD AFD |\
vG2vA BGE BGE | udcB AGF E3 ::\
ve2vf ug2ua bge | ud2e f2g afd |\
ve2f g2a bge | udcB AGF E3 :|

%%sep 1 1 500
%%sep 1 1 500

